X:1
T:Title
%%score ( 1 2 ) ( 3 4 )
L:1/8
M:4/4
K:Eb
V:1 treble nm="Grand Piano, Staff"
V:2 treble 
V:3 bass nm="Choir Pad, Holley, LM"
V:4 bass 
V:1
 [EG]4 [E_G]2 [E=G]2 | E4 [EG]4 | [DF]2 [EG]2 [FA]2 [DB]2 | [EG]8 | [EB]4 [E=A]2 [EB]2 | %5
w: By~G.~Hews * *|||||
 [EG]4 [EG]2 [GB]2 | [GB]2 [FA]2 [FA]2 [EG]2 | [DF]8 | [EG]4 [DF]2 [DF]2 | [CE]4 [DF]4 | z4 B2 z2 | %11
w: ||||||
 F8 | [EG]4 [EB]2 [EB]2 | [EA]6 [CF]2 | [B,E]4 [B,D]4 | [B,E]8 |] %16
w: |||||
V:2
 x8 | x8 | x8 | x8 | x8 | x8 | x8 | x8 | x8 | x8 | [EG]2 [DA]2 E2- [Ec]2 | E4 D4 | x8 | x8 | x8 | %15
 x8 |] %16
V:3
 [E,B,]4 [E,=A,]2 [E,B,]2 | [E,G,]4 [E,B,]4 | B,4 [B,,B,]4 | [E,B,]8 | [E,G,]4 [E,_G,]2 [E,=G,]2 | %5
 [E,B,]4 [E,B,]4 | [D,B,]4 [E,B,]4 | [B,,B,]8 | [E,B,]4 [B,,B,]2 [=B,,A,]2 | [C,G,]4 [B,,B,]4 | %10
 [E,B,]2 [F,A,]2 G,2 [A,C]2 | B,8 | [E,B,]4 [G,_D]2 [G,D]2 | [A,C]6 [A,,A,]2 | [B,,G,]4 A,2 F,2 | %15
 [E,G,]8 |] %16
V:4
 x8 | x8 | x8 | x8 | x8 | x8 | x8 | x8 | x8 | x8 | x8 | x8 | x8 | x8 | z4 B,,4 | x8 |] %16

